src/assets/icons/numbers,simple,02.svg

<svg width="48" height="48" viewBox="0 0 48 48" fill="none" xmlns="http://www.w3.org/2000/svg">
<rect opacity="0.2" x="5" y="5" width="38" height="38" rx="4" fill="black"/>
<path d="M16.0642 36H32.1367V32.103H22.6693V31.9489L25.9609 28.7234C30.5955 24.4961 31.8394 22.3825 31.8394 19.8175C31.8394 15.9094 28.647 13.1463 23.8142 13.1463C19.0806 13.1463 15.8331 15.9755 15.8441 20.4009H20.3686C20.3576 18.2433 21.7226 16.9222 23.7812 16.9222C25.7627 16.9222 27.2379 18.1552 27.2379 20.1367C27.2379 21.9311 26.137 23.1641 24.0894 25.1346L16.0642 32.5653V36Z" fill="black"/>
</svg>

<svg xmlns="http://www.w3.org/2000/svg" width="48" height="48" fill="none" viewBox="0 0 48 48">
  <rect width="38" height="38" x="5" y="5" fill="#000" opacity=".2" rx="4"/>
  <path fill="#000" d="M16.064 36h16.073v-3.897h-9.468v-.154l3.292-3.226c4.635-4.227 5.878-6.34 5.878-8.905 0-3.909-3.192-6.672-8.025-6.672-4.733 0-7.98 2.83-7.97 7.255h4.525c-.011-2.158 1.354-3.479 3.412-3.479 1.982 0 3.457 1.233 3.457 3.215 0 1.794-1.101 3.027-3.149 4.998l-8.025 7.43V36z"/>
</svg>
